X: 2015
T: LADY CHARLOTTE DURHAM
R: Strathspey.
%R: strathspey
B: James Kerr "Merry Melodies" v.2 p.5 #15
Z: 2016 John Chambers <jc:trillian.mit.edu>
M: C
L: 1/8
K: A
uf |:\
ve>vAuc>uA vB>=GG>uf | ve>vAuc>uA c/d/e =g2 |\
e<=g d<g B<=GG>uf | ve>vAuc>uA vc>vdue>ua ::\
(vc<e)e>ua v=g>vduB>u=G |
(c<e)ue<a c>ea>e |\
[1 c<e A<a v=g>dB>=G | c<A d<B c/d/e a2 :|\
[2 d<f c<a B<=g B<=G | c<e d<f (e<g) a2 |]
